X:1
T:Er stund mir wol
T:Melchior Franck
T:Source : Tricinia nova---Nürnberg---A.Wagenmann---1611. Editor : André Vierendeels (28/03/17).
T:Notes : Original clefs : C1, C1, F4 Text Middle German 
T:Er stund mir wol
T:©
T:©
C:Melchior Franck
Z:©
%%score [ 1 2 3 ]
L:1/8
Q:1/4=100
M:2/2
K:F
V:1 treble nm="Soprano" snm="S"
V:2 treble nm="Alto" snm="A"
V:3 bass nm="Bass" snm="B"
V:1
"^1)" z4 A4 | A2 A2 d2 B2 | A4 z2 A2 | =B2 c4 B2 | A2 G2 A4 |[M:2/4] G4 |[M:2/2] z4 A4 | %7
w: Er|stund mir wol ge-|denckt, da|ich war ge-|fan- * *|gen,|in|
w: Nun|a- ber bin ich|frey, von|det le- be|stri- * *|cken,|kein|
 A2 A2 d2 B2 | A4 z2 A2 | =B2 c4 B2 | A2 G2 A4 |[M:2/4] G4 |:[M:2/2] z2 c2 c3 c | c2 c2 d4 | %14
w: lieb gar tieff ver-|senckt, in|schmer- zen ge-|han- * *|gen,|Da- mals kondt|ich nicht sprin-|
w: sor- ge wohnt mir|bey, mir|wirdt noch ge-|lu- * *|cken:|Drumb thu ich|jetz- und sprin-|
 c2 c2 c3 c | c2 c2 d4 | e2 f4 d2- | d2 cB A2 G2 | A2 A2 !fermata!G4 :| %19
w: gen, kein frö- lich|lied- lein sin-|gen, die lieb|_ _ _ _ _|* mich trutzt|
w: gen, mit lust disz|Lied- lein sin-|gen, der lieb|_ _ _ _ _|* zu trutz|
V:2
"^2)""^1)" z4 ^F4 | ^F2 F2 G2 G2 | F2 D2 E2 ^F2- | F2 G2 A2 G2 | ^F2 G4 F2 |[M:2/4] G4 | %6
w: Er|stund mir wol ge-|denckt, da ich war|_ ge- fan- *||gen,|
w: Alls|trau- ren von mir|hin, ist nun weg-|* ge- fah- *||ren,|
[M:2/2] z4 ^F4 | ^F2 F2 G2 G2 | F2 D2 E2 ^F2- | F2 G2 A2 G2 | ^F2 G4 F2 |[M:2/4] G4 |: %12
w: in|lieb gar tieff ver-|senckt, in schmer- zen|_ ge- han- *||gen,|
w: so|le- dig ich jetzt|bin, als vor vi-|* len ja- *||ren:|
[M:2/2] z2 A2 A3 A | A2 A2 B4 | A2 A2 A3 G | A2 c2 =B4 | c2 d4 B2- | B2 AG ^F2 G2- | %18
w: Da- mals kondt|ich nicht sprin-|gen, kein frö- lich|lied- lein sin-|gen, die lieb|_ _ _ _ _|
w: Drumb thu ich|jetz- und sprin-|gen, mit lust disz|Lied- lein sin-|gen, der lieb|_ _ _ _ _|
 G2 ^F2 !fermata!G4 :| %19
w: * zu trutz.|
w: * zu trutz.|
V:3
"^3)""^1)""^4)" D,8 | D,2 D,2 B,,2 G,,2 | D,4 z2 D,2- | D,2 E,2 ^F,2 G,2 | D,8 |[M:2/4] G,,4 | %6
w: Er|stund mir wol ge-|denckt, da|_ ich war ge-|fan-|gen,-|
w: Drumb|fol- ge mei- ner|Lehr, rath|ich dir in treu-||en,|
[M:2/2] D,8 | D,2 D,2 B,,2 G,,2 | D,4 z2 D,2- | D,2 E,2 ^F,2 G,2 | D,8 |[M:2/4] G,,4 |: %12
w: in|lieb gar tieff ver-|senckt, in|_ schmer- ze ge-|han-|gen,|
w: der|lieb trau nim- mer-|mehr, sonst|_ möchts dich ge-|reu-|en:|
[M:2/2] z2 F,2 F,3 F, | F,2 F,2 B,4 | F,2 F,2 F,3 E, | F,2 A,2 G,4 | C,2 B,,2 B,,4 | C,4 D,2 B,,2 | %18
w: Da- mals kondt|ich nicht sprin-|gen, kein frö- lich|lied- lein sin-|gen, die lieb|_ _ _|
w: Thu viel mehr|frö- lich sprin-|gen, mit lust ein|lied- lein sin-|gen, der lieb|_ _ _|
 C,2 D,2 !fermata!G,,4 :| %19
w: * zu trutz.|
w: * zu trutz.|

